res/weapons/innoxia/europeanSwords/zweihander.svg

<?xml version="1.0" encoding="UTF-8"?>
<svg cursor="default" version="1.1" viewBox="0 0 256 256" xmlns="http://www.w3.org/2000/svg" xmlns:cc="http://creativecommons.org/ns#" xmlns:dc="http://purl.org/dc/elements/1.1/" xmlns:rdf="http://www.w3.org/1999/02/22-rdf-syntax-ns#" xmlns:xlink="http://www.w3.org/1999/xlink">
 <metadata>
  <rdf:RDF>
   <cc:Work rdf:about="">
    <dc:format>image/svg+xml</dc:format>
    <dc:type rdf:resource="http://purl.org/dc/dcmitype/StillImage"/>
    <dc:title/>
   </cc:Work>
  </rdf:RDF>
 </metadata>
 <defs>
  <linearGradient id="innoGrad3">
   <stop stop-color="#f95" offset="0"/>
   <stop stop-color="#ffb380" offset="1"/>
  </linearGradient>
  <linearGradient id="linearGradient2658" x1="-76.835" x2="-76.582" y1="52.517" y2="46.267" gradientTransform="rotate(-44.807 192.37 -8.4) scale(.90438)" gradientUnits="userSpaceOnUse" xlink:href="#innoGrad3"/>
  <linearGradient id="linearGradient2668" x1="-26.696" x2="-26.429" y1="51.804" y2="46.536" gradientTransform="rotate(-44.807 192.37 -8.4) scale(.90438)" gradientUnits="userSpaceOnUse" xlink:href="#innoGrad3"/>
  <linearGradient id="linearGradient2678" x1="87.378" x2="87.631" y1="53.086" y2="45.636" gradientTransform="rotate(-44.807 192.37 -8.4) scale(.90438)" gradientUnits="userSpaceOnUse">
   <stop stop-color="#f55" offset="0"/>
   <stop stop-color="#ff8080" offset="1"/>
  </linearGradient>
  <linearGradient id="linearGradient2716" x1="82.143" x2="86.786" y1="207.07" y2="201.89" gradientUnits="userSpaceOnUse">
   <stop stop-color="#bcd35f" offset="0"/>
   <stop stop-color="#dde9af" offset="1"/>
  </linearGradient>
 </defs>
 <g stroke="#000">
  <path d="m89.234 175c3.063 2.86 8.196 3.99 12.785 3.798-7.197-2.863-10.536-5.675-8.736-7.499l150.38-152.27c3.681-3.728 7.949-10.855 8.117-12.57-2.22 0.369-8.806 3.958-13.433 8.514l-151.83 149.52c-1.688 1.664-7.037-3.374-8.23-7.828-0.654 3.665 1.376 8.634 4.501 12.177z" fill="url(#linearGradient2678)" fill-rule="evenodd" stroke-width=".904"/>
  <path d="m84.51 170.11 84.993-80.87-82.07 83.577z" fill="#ff2a2a" fill-rule="evenodd" stroke-width=".452"/>
  <ellipse transform="rotate(-44.807)" cx="-162.99" cy="183.13" rx="1.485" ry="1.427" fill="#dde9af" stroke-linecap="round" stroke-linejoin="round" stroke-width=".452"/>
 </g>
 <g fill-rule="evenodd" stroke="#000">
  <path d="M20.073 234.681l-8.084 2.88c-2.132.76-.896 4.495 1.659 6.81 2.807 2.545 6.895 3.074 7.356 1.618l2.571-8.106c-.62-1.525-1.023-3.111-3.502-3.202z" fill="#bcd35f" stroke-width=".904"/>
  <path d="M67.818 195.214c-7.889 6.548-20.479 22.231-24.923 24.525-5.134 5.563-10.806 10.12-19.606 19.152l-3.7-4.05c8.596-8.81 12.096-14.075 17.991-19.48 4.871-7.274 17.463-16.934 24.904-25.767-.35-.283 6.248 5.214 5.334 5.62z" fill="url(#linearGradient2658)" stroke-width=".904"/>
  <path d="M61.061 184.208c-1.796-1.917-2.368-3.328-1.641-4.164 2.378-2.736 20.391 16.075 17.777 18.255-.987.823-2.416.262-3.985-1.372l1.053-.966c.554.615.752 1.183 1.567.906 1.956-.666-14.621-17.243-14.923-15.324-.117.743.47 1.338 1.084 1.659z" fill="#dde9af" stroke-width=".452"/>
 </g>
 <path d="M11.815 238.743c.174.533.357 1.25.896 2.29.505.976 1.118 1.8 1.543 2.228.18.18.432.409.745.655.749.591 1.7 1.18 2.75 1.605a8.845 8.845 0 0 0 2.805.645c-.611-.049-1.55-.31-2.65-.959-.947-.559-1.747-1.242-2.397-1.873-.27-.263-.49-.491-.66-.662-.454-.458-1.068-.98-1.786-1.867-.673-.83-1.09-1.584-1.246-2.062z" fill="#eef4d7"/>
 <g stroke="#000">
  <path d="m62.64 189.14 19.724-20.872c2.418 2.39 4.836 4.82 7.254 6.867l-21.184 19.718c-3.346-3.202-5.018-4.389-5.794-5.712z" fill="url(#linearGradient2668)" fill-rule="evenodd" stroke-width=".904"/>
  <path d="M64.16 187.43l-31.275-28.57c-1.421-1.297 1.352-3.845 2.633-2.534l29.452 30.138 6.279 5.916 30.629 28.486c.709.66-1.165 3.87-2.632 2.373l-29.292-29.895z" fill="url(#linearGradient2716)" fill-rule="evenodd" stroke-width=".904"/>
  <path d="m67.677 194.89-3.306-6.9" fill="none" stroke-width=".5"/>
  <path d="M73.536 196.707c.61.559 1.025 1.295.894 1.574-.879 1.87-17.078-14.206-15.301-14.99.337-.15 1.079.107 2.016.96l.733-.676c-2.16-2.271-3.318-2.54-4.16-1.82-2.75 2.36 15.938 20.5 18.136 17.9.829-.98.278-2.414-1.346-3.994z" fill="#dde9af" fill-rule="evenodd" stroke-width=".452"/>
 </g>
 <path d="M161.419 92.361c7.203-6.97 9.767-9.436 16.97-16.407a13058.79 13058.79 0 0 0 25.141-24.42c2.053-1.999 20.86-20.343 22.913-22.342a7155.292 7155.292 0 0 0 14.022-13.712l.328-.318c1.519-1.468 3.032-2.91 5.203-4.566 1.89-1.443 3.272-2.266 3.61-2.43-.31.15-1.865.758-3.909 1.99-2.188 1.32-4.217 2.912-5.618 4.267-.104.1-.215.21-.333.329-2.918 2.893-7.499 7.468-13.89 13.844 3.955-3.946-26.631 26.53-22.675 22.583a8993.331 8993.331 0 0 1-24.9 24.665c-7.48 7.376-13.122 12.897-16.862 16.517z" fill="#ffd5d5"/>
 <g fill="none" stroke="#000">
  <path d="m24.241 237.79-2.41-5.224m4.731 3.103-2.41-5.223m4.419 2.846-2.321-5.491m4.554 3.326-2.545-5.715m4.978 3.633-2.858-6.116m5.001 3.995-2.947-6.294m5 4.274-2.902-6.428m5.357 4.264-2.99-6.206" stroke-width=".5"/>
  <path d="m42.625 219.84-4.88-4.554"/>
  <path d="m43.08 219.4-3.073-6.833m5.489 4.902-3.42-7.307m5.461 5.434-3.142-7.606m5.469 5.283-3.208-7.45m5.42 4.832-3.173-6.968m5.316 4.848-3.2-6.895m5.253 4.875-3.091-7.06m5.547 4.894-3.307-6.9m5.255 4.468-3.09-7.06m5.546 4.894-3.307-6.899m5.397 4.361-3.091-7.06m-20.324 30.565-0.876-2.228m-2.012-1.876-0.877-2.228" stroke-width=".5"/>
 </g>
</svg>

<svg xmlns="http://www.w3.org/2000/svg" xmlns:xlink="http://www.w3.org/1999/xlink" cursor="default" viewBox="0 0 256 256">
    <defs>
        <linearGradient id="innoGrad2">
            <stop offset="0" stop-color="#fd5"/>
            <stop offset="1" stop-color="#fea"/>
        </linearGradient>
        <linearGradient id="innoGrad1">
            <stop offset="0" stop-color="#f55"/>
            <stop offset="1" stop-color="#ff8080"/>
        </linearGradient>
        <linearGradient id="innoGrad3">
            <stop offset="0" stop-color="#f95"/>
            <stop offset="1" stop-color="#ffb380"/>
        </linearGradient>
        <linearGradient id="linearGradient2658" x1="-76.835" x2="-76.582" y1="52.517" y2="46.267" gradientTransform="rotate(-44.807 192.366 -8.4) scale(.90438)" gradientUnits="userSpaceOnUse" xlink:href="#innoGrad3"/>
        <linearGradient id="linearGradient2668" x1="-26.696" x2="-26.429" y1="51.804" y2="46.536" gradientTransform="rotate(-44.807 192.366 -8.4) scale(.90438)" gradientUnits="userSpaceOnUse" xlink:href="#innoGrad3"/>
        <linearGradient id="linearGradient2678" x1="87.378" x2="87.631" y1="53.086" y2="45.636" gradientTransform="rotate(-44.807 192.366 -8.4) scale(.90438)" gradientUnits="userSpaceOnUse" xlink:href="#innoGrad1"/>
        <linearGradient id="linearGradient2716" x1="82.143" x2="86.786" y1="207.071" y2="201.893" gradientUnits="userSpaceOnUse" xlink:href="#innoGrad2"/>
    </defs>
    <path fill="url(#linearGradient2678)" fill-rule="evenodd" stroke="#000" stroke-width=".904" d="M89.234 174.998c3.063 2.86 8.196 3.99 12.785 3.798-7.197-2.863-10.536-5.675-8.736-7.499l150.383-152.27c3.681-3.728 7.949-10.855 8.117-12.57-2.22.369-8.806 3.958-13.433 8.514L86.523 164.491c-1.688 1.664-7.037-3.374-8.23-7.828-.654 3.665 1.376 8.634 4.501 12.177z"/>
    <path fill="#ff2a2a" fill-rule="evenodd" stroke="#000" stroke-width=".452" d="M84.51 170.106l84.993-80.87-82.07 83.577z"/>
    <ellipse cx="-162.992" cy="183.132" fill="#fea" stroke="#000" stroke-linecap="round" stroke-linejoin="round" stroke-width=".452" rx="1.485" ry="1.427" transform="rotate(-44.807)"/>
    <path fill="#ffe680" fill-rule="evenodd" stroke="#000" stroke-width=".904" d="M20.073 234.681l-8.084 2.88c-2.132.76-.896 4.495 1.659 6.81 2.807 2.545 6.895 3.074 7.356 1.618l2.571-8.106c-.62-1.525-1.023-3.111-3.502-3.202z"/>
    <path fill="url(#linearGradient2658)" fill-rule="evenodd" stroke="#000" stroke-width=".904" d="M67.818 195.214c-7.889 6.548-20.479 22.231-24.923 24.525-5.134 5.563-10.806 10.12-19.606 19.152l-3.7-4.05c8.596-8.81 12.096-14.075 17.991-19.48 4.871-7.274 17.463-16.934 24.904-25.767-.35-.283 6.248 5.214 5.334 5.62z"/>
    <path fill="#fea" fill-rule="evenodd" stroke="#000" stroke-width=".452" d="M61.061 184.208c-1.796-1.917-2.368-3.328-1.641-4.164 2.378-2.736 20.391 16.075 17.777 18.255-.987.823-2.416.262-3.985-1.372l1.053-.966c.554.615.752 1.183 1.567.906 1.956-.666-14.621-17.243-14.923-15.324-.117.743.47 1.338 1.084 1.659z"/>
    <path fill="#ffd42a" d="M11.815 238.743c.174.533.357 1.25.896 2.29.505.976 1.118 1.8 1.543 2.228.18.18.432.409.745.655.749.591 1.7 1.18 2.75 1.605a8.845 8.845 0 0 0 2.805.645c-.611-.049-1.55-.31-2.65-.959-.947-.559-1.747-1.242-2.397-1.873-.27-.263-.49-.491-.66-.662-.454-.458-1.068-.98-1.786-1.867-.673-.83-1.09-1.584-1.246-2.062z"/>
    <path fill="url(#linearGradient2668)" fill-rule="evenodd" stroke="#000" stroke-width=".904" d="M62.64 189.14l19.724-20.872c2.418 2.39 4.836 4.82 7.254 6.867l-21.184 19.718c-3.346-3.202-5.018-4.389-5.794-5.712z"/>
    <path fill="url(#linearGradient2716)" fill-rule="evenodd" stroke="#000" stroke-width=".904" d="M64.16 187.43l-31.275-28.57c-1.421-1.297 1.352-3.845 2.633-2.534l29.452 30.138 6.279 5.916 30.629 28.486c.709.66-1.165 3.87-2.632 2.373l-29.292-29.895z"/>
    <path fill="none" stroke="#000" stroke-width=".5" d="M67.677 194.89l-3.306-6.9"/>
    <path fill="#fea" fill-rule="evenodd" stroke="#000" stroke-width=".452" d="M73.536 196.707c.61.559 1.025 1.295.894 1.574-.879 1.87-17.078-14.206-15.301-14.99.337-.15 1.079.107 2.016.96l.733-.676c-2.16-2.271-3.318-2.54-4.16-1.82-2.75 2.36 15.938 20.5 18.136 17.9.829-.98.278-2.414-1.346-3.994z"/>
    <path fill="#ffd5d5" d="M161.419 92.361c7.203-6.97 9.767-9.436 16.97-16.407a13058.79 13058.79 0 0 0 25.141-24.42c2.053-1.999 20.86-20.343 22.913-22.342a7155.292 7155.292 0 0 0 14.022-13.712l.328-.318c1.519-1.468 3.032-2.91 5.203-4.566 1.89-1.443 3.272-2.266 3.61-2.43-.31.15-1.865.758-3.909 1.99-2.188 1.32-4.217 2.912-5.618 4.267-.104.1-.215.21-.333.329-2.918 2.893-7.499 7.468-13.89 13.844 3.955-3.946-26.631 26.53-22.675 22.583a8993.331 8993.331 0 0 1-24.9 24.665c-7.48 7.376-13.122 12.897-16.862 16.517z"/>
    <path fill="none" stroke="#000" stroke-width=".5" d="M24.241 237.786l-2.41-5.224M26.562 235.665l-2.41-5.223M28.571 233.288l-2.321-5.491M30.804 231.123l-2.545-5.715M33.237 229.041l-2.858-6.116M35.38 226.92l-2.947-6.294M37.433 224.9l-2.902-6.428M39.888 222.736l-2.99-6.206"/>
    <path fill="none" stroke="#000" d="M42.625 219.84l-4.88-4.554"/>
    <path fill="none" stroke="#000" stroke-width=".5" d="M43.08 219.399l-3.073-6.833M45.496 217.468l-3.42-7.307M47.537 215.595l-3.142-7.606M49.864 213.272l-3.208-7.45M52.076 210.654l-3.173-6.968M54.219 208.534l-3.2-6.895M56.272 206.514l-3.091-7.06M58.728 204.348l-3.307-6.9M60.676 201.916l-3.09-7.06M63.132 199.75l-3.307-6.899M65.222 197.212l-3.091-7.06M41.807 220.717l-.876-2.228M38.919 216.613l-.877-2.228"/>
</svg>
